src/assets/logos/CODEINFINITY.svg

<svg width="379" height="250" viewBox="0 0 379 250" fill="none" xmlns="http://www.w3.org/2000/svg">
<path d="M32.3772 168.045C21.6435 155.552 10.9097 143.234 0 130.917L17.4204 0L117.719 24.107L122.294 74.7844L90.6211 40.6475L45.9264 35.5446L26.7464 143.058C26.7464 143.058 118.423 138.483 132.676 138.483H134.964C134.964 138.483 49.9736 162.942 32.3772 168.045Z" fill="#FF4D00"/>
<path d="M93.9569 228.709L177.892 216.391L186.307 160.002L217.61 154.054L210.797 241.378L103.635 250L76.7127 218.327L74.6356 158.864C80.0734 157.297 85.6307 155.696 91.07 154.13C92.883 153.608 94.6827 153.089 96.4606 152.577L93.9569 228.709Z" fill="#FF4D00"/>
<path d="M96.5613 149.538C89.4073 151.598 81.8707 153.77 74.532 155.884L74.0047 140.788C81.6595 140.433 89.4956 140.079 96.8824 139.757L96.5613 149.538Z" fill="#FF4D00"/>
<path d="M218.986 130.38L189.042 141.669L193.201 113.805L184.307 114.54L188.611 95.7723L218.986 130.38Z" fill="#FF4D00"/>
<path d="M159.654 116.579L97.4766 121.723L96.9785 136.857C89.6303 137.177 81.8399 137.529 74.2326 137.881C74.123 137.886 74.0135 137.891 73.904 137.896L72.3137 92.3374L160.179 83.5797L159.654 116.579Z" fill="#FF4D00"/>
<path fill-rule="evenodd" clip-rule="evenodd" d="M271.562 27.9782L285.991 59.124L280.813 77.7146L266.723 79.3266L265.307 133.395L262.764 142.53L171.087 159.951L161.057 203.589L161.76 161.71L127.272 168.221L161.936 155.023L164.401 0L271.562 27.9782ZM197.481 44.1669L173.023 150.8L238.833 125.99L260.3 35.5448L197.481 44.1669Z" fill="#FF4D00"/>
<path d="M290.137 177.639L283.274 224.797L355.067 226.028L265.15 249.959L269.549 81.9145L378.822 69.4211L299.991 109.541L293.304 155.643L293.48 154.939L348.381 151.42L290.137 177.639Z" fill="#FF4D00"/>
</svg>

<svg width="379" height="250" fill="none" xmlns="http://www.w3.org/2000/svg"><path d="M32.377 168.045A3257.604 3257.604 0 000 130.917L17.42 0 117.72 24.107l4.575 50.677-31.673-34.137-44.695-5.102-19.18 107.513s91.677-4.575 105.93-4.575h2.288s-84.99 24.459-102.587 29.562zM93.957 228.709l83.935-12.318 8.415-56.389 31.303-5.948-6.813 87.324L103.635 250l-26.922-31.673-2.077-59.463 16.434-4.734 5.39-1.553-2.503 76.132z" fill="#FF4D00"/><path d="M96.561 149.538l-22.029 6.346-.527-15.096c7.654-.355 15.49-.709 22.877-1.031l-.32 9.781zM218.986 130.38l-29.944 11.289 4.159-27.864-8.894.735 4.304-18.768 30.375 34.608zM159.654 116.579l-62.177 5.144-.499 15.134a8505.822 8505.822 0 00-23.074 1.039l-1.59-45.559 87.865-8.757-.525 32.999z" fill="#FF4D00"/><path fill-rule="evenodd" clip-rule="evenodd" d="M271.562 27.978l14.429 31.146-5.178 18.59-14.09 1.613-1.416 54.068-2.543 9.135-91.677 17.421-10.03 43.638.703-41.879-34.488 6.511 34.664-13.198L164.401 0l107.161 27.978zm-74.081 16.189L173.023 150.8l65.81-24.81L260.3 35.545l-62.819 8.622z" fill="#FF4D00"/><path d="M290.137 177.639l-6.863 47.158 71.793 1.231-89.917 23.931 4.399-168.044L378.822 69.42l-78.831 40.12-6.687 46.102.176-.704 54.901-3.519-58.244 26.219z" fill="#FF4D00"/></svg>
